X:1
T:Glenbucket Lodge
T:Glenbucket Lodge
T:Alexander Walker
C:Alexander Walker
L:1/8
M:4/4
K:G
V:1 treble 
V:1
 D | G2 B>G d>GB>G | c<ed>c c<AA>B | G2 B>G d>GB>A | G>ED>C B,<G,G,>D | G2 B>G d>GB>G | %6
 c<ed>c c<AA>c | B>(dc>)(e d>)(ge>)c | (B>d).g>.a b<g g || g | b>gd>g B<g d2 | b<gd>B c<AA>a | %12
 b<gd>g B>gd>B | c>Ad>c B<GG>g | b>gd>g B<g d2 | b<gd>B c<AA>a | g<bg>d e<gd>B | c>Ad>F (G2 G) || %18

